Simply white circles/scalable/mimes/multipart-encrypted.svg

<?xml version="1.0" encoding="UTF-8" standalone="no"?>
<!-- Created with Inkscape (http://www.inkscape.org/) -->

<svg
   xmlns:dc="http://purl.org/dc/elements/1.1/"
   xmlns:cc="http://creativecommons.org/ns#"
   xmlns:rdf="http://www.w3.org/1999/02/22-rdf-syntax-ns#"
   xmlns:svg="http://www.w3.org/2000/svg"
   xmlns="http://www.w3.org/2000/svg"
   xmlns:xlink="http://www.w3.org/1999/xlink"
   xmlns:sodipodi="http://sodipodi.sourceforge.net/DTD/sodipodi-0.dtd"
   xmlns:inkscape="http://www.inkscape.org/namespaces/inkscape"
   version="1.1"
   width="48"
   height="48"
   id="svg21744"
   sodipodi:docname="multipart-encrypted.svg"
   inkscape:version="0.92.3 (2405546, 2018-03-11)">
  <sodipodi:namedview
     pagecolor="#ffffff"
     bordercolor="#666666"
     borderopacity="1"
     objecttolerance="10"
     gridtolerance="10"
     guidetolerance="10"
     inkscape:pageopacity="0"
     inkscape:pageshadow="2"
     inkscape:window-width="1366"
     inkscape:window-height="719"
     id="namedview44"
     showgrid="false"
     inkscape:zoom="5.15625"
     inkscape:cx="-18.811151"
     inkscape:cy="23.224242"
     inkscape:window-x="0"
     inkscape:window-y="25"
     inkscape:window-maximized="1"
     inkscape:current-layer="svg21744"
     inkscape:snap-global="false" />
  <defs
     id="defs21746">
    <linearGradient
       x1="525.4375"
       y1="836.1875"
       x2="516.65625"
       y2="828.5"
       id="linearGradient14113"
       xlink:href="#linearGradient14494-2-7"
       gradientUnits="userSpaceOnUse"
       gradientTransform="translate(-125.5,-1702.64)" />
    <linearGradient
       id="linearGradient14494-2-7">
      <stop
         id="stop14496-9-3"
         style="stop-color:#dc85e9;stop-opacity:1"
         offset="0" />
      <stop
         id="stop14498-9-7"
         style="stop-color:#f2cbf8;stop-opacity:1"
         offset="1" />
    </linearGradient>
    <linearGradient
       x1="520.58502"
       y1="735.05206"
       x2="516.15179"
       y2="720.86298"
       id="linearGradient14115"
       xlink:href="#linearGradient14494-5"
       gradientUnits="userSpaceOnUse" />
    <linearGradient
       id="linearGradient14494-5">
      <stop
         id="stop14496-5"
         style="stop-color:#dc85e9;stop-opacity:1"
         offset="0" />
      <stop
         id="stop14498-1"
         style="stop-color:#f2cbf8;stop-opacity:1"
         offset="1" />
    </linearGradient>
    <linearGradient
       x1="525.4375"
       y1="836.1875"
       x2="516.65625"
       y2="828.5"
       id="linearGradient54948"
       xlink:href="#linearGradient14494-2-7"
       gradientUnits="userSpaceOnUse"
       gradientTransform="translate(-462.50049,-802.00385)" />
    <linearGradient
       x1="520.58502"
       y1="735.05206"
       x2="516.15179"
       y2="720.86298"
       id="linearGradient14109"
       xlink:href="#linearGradient14494-5"
       gradientUnits="userSpaceOnUse"
       gradientTransform="matrix(0.512535,0,0,0.615385,-202.35949,-422.92385)" />
    <linearGradient
       x1="525.4375"
       y1="836.1875"
       x2="516.65625"
       y2="828.5"
       id="linearGradient54952"
       xlink:href="#linearGradient14494-2-7"
       gradientUnits="userSpaceOnUse"
       gradientTransform="translate(-462.50049,-797.50385)" />
    <linearGradient
       x1="209.0625"
       y1="-765.46082"
       x2="209.0625"
       y2="-781.62268"
       id="linearGradient44039"
       xlink:href="#linearGradient15606-1"
       gradientUnits="userSpaceOnUse"
       gradientTransform="matrix(1.5,0,0,1.5,-364.99949,1176.9562)" />
    <linearGradient
       id="linearGradient15606-1">
      <stop
         id="stop15608-0"
         style="stop-color:#ffffff;stop-opacity:0.58823502"
         offset="0" />
      <stop
         id="stop15610-5"
         style="stop-color:#ffffff;stop-opacity:0.86274499"
         offset="1" />
    </linearGradient>
    <linearGradient
       x1="294.3429"
       y1="256.58133"
       x2="294.41818"
       y2="243.13852"
       id="linearGradient44042"
       xlink:href="#linearGradient10286-3"
       gradientUnits="userSpaceOnUse"
       gradientTransform="matrix(2.99213,0,0,3.00466,-830.71149,-727.44385)" />
    <linearGradient
       id="linearGradient10286-3">
      <stop
         id="stop10288-8"
         style="stop-color:#b3b3b3;stop-opacity:1"
         offset="0" />
      <stop
         id="stop10290-7"
         style="stop-color:#e6e6e6;stop-opacity:1"
         offset="1" />
    </linearGradient>
    <linearGradient
       x1="110.96875"
       y1="976.29968"
       x2="110.96875"
       y2="992.375"
       id="linearGradient43236"
       xlink:href="#linearGradient4145-42"
       gradientUnits="userSpaceOnUse" />
    <linearGradient
       id="linearGradient4145-42">
      <stop
         id="stop4953"
         style="stop-color:#e694bb;stop-opacity:1"
         offset="0" />
      <stop
         id="stop4955"
         style="stop-color:#d3819a;stop-opacity:1"
         offset="0.26238" />
      <stop
         id="stop4957"
         style="stop-color:#b25a64;stop-opacity:1"
         offset="0.704952" />
      <stop
         id="stop4959"
         style="stop-color:#98313d;stop-opacity:1"
         offset="1" />
    </linearGradient>
    <linearGradient
       x1="110.96875"
       y1="976.29968"
       x2="110.99982"
       y2="991.87488"
       id="linearGradient14097-7"
       xlink:href="#linearGradient4145-42"
       gradientUnits="userSpaceOnUse"
       gradientTransform="matrix(1,0,0,1.00011,0,-0.10551)" />
    <linearGradient
       x1="110.96875"
       y1="976.29968"
       x2="110.96875"
       y2="992.375"
       id="linearGradient21742"
       xlink:href="#linearGradient4145-42"
       gradientUnits="userSpaceOnUse"
       gradientTransform="matrix(1.00399,0,0,1.00959,-1.1658,-9.36636)" />
    <clipPath
       clipPathUnits="userSpaceOnUse"
       id="clipPath867">
      <g
         inkscape:label="Clip"
         id="use869">
        <path
           d="m 47.000614,3.0210706 v 0.75 40.5000404 0.72723 h 0.75 32.499399 0.75 v -0.72723 -25.50003 -0.3282 l -0.2344,-0.2343 -14.9059,-15.0000104 -0.1875,-0.1875 h -0.3282 -17.593399 z"
           id="path875"
           style="color:#000000;font-style:normal;font-variant:normal;font-weight:normal;font-stretch:normal;font-size:medium;line-height:normal;font-family:'Andale Mono';text-indent:0pt;text-align:start;text-decoration:none;text-decoration-line:none;letter-spacing:normal;word-spacing:normal;text-transform:none;direction:ltr;text-anchor:start;display:inline;overflow:visible;visibility:visible;fill:#000000;fill-opacity:1;fill-rule:nonzero;stroke:none;stroke-width:1;marker:none"
           inkscape:connector-curvature="0" />
      </g>
    </clipPath>
  </defs>
  <metadata
     id="metadata21749">
    <rdf:RDF>
      <cc:Work
         rdf:about="">
        <dc:format>image/svg+xml</dc:format>
        <dc:type
           rdf:resource="http://purl.org/dc/dcmitype/StillImage" />
        <dc:title></dc:title>
      </cc:Work>
    </rdf:RDF>
  </metadata>
  <path
     style="color:#000000;font-style:normal;font-variant:normal;font-weight:normal;font-stretch:normal;font-size:medium;line-height:normal;font-family:'Andale Mono';text-indent:0pt;text-align:start;text-decoration:none;text-decoration-line:none;letter-spacing:normal;word-spacing:normal;text-transform:none;direction:ltr;text-anchor:start;display:inline;overflow:visible;visibility:visible;fill:#e6e6e6;fill-opacity:1;stroke:none;stroke-width:5.99873972;marker:none"
     d="M 29.705078 -0.083984375 C 27.658234 -0.075805254 25.583576 0.00449542 25.1875 0.013671875 L 7 0.013671875 C 6.813106 -0.004321175 6.624454 -0.004321175 6.4375 0.013671875 C 5.062346 0.27607036 3.975341 1.6123101 4 3.0117188 L 4 45 C 4.00015 46.570313 5.429312 47.99985 7 48 L 41 48 C 42.570687 47.99985 43.99985 46.570313 44 45 L 44 18.818359 C 44.018 18.026395 44.215294 8.8914456 43.664062 8.3222656 L 34.054688 0.24804688 C 33.770027 -0.027426575 31.751922 -0.092163496 29.705078 -0.083984375 z M 31.195312 3.0097656 L 31.328125 10.513672 C 31.340155 11.195372 31.966379 11.80479 32.644531 11.792969 L 40.416016 11.65625 C 40.548988 11.674363 40.684161 11.672765 40.816406 11.650391 L 40.898438 14.679688 L 41 18.771484 L 41 44.271484 L 41 44.998047 L 40.25 44.998047 L 7.75 44.998047 L 7 44.998047 L 7 44.271484 L 7 3.7714844 L 7 3.0214844 L 7.75 3.0214844 L 25.34375 3.0214844 L 25.671875 3.0214844 L 31.195312 3.0097656 z M 15.837891 7.6425781 C 15.786571 7.6390081 15.723088 7.6462579 15.644531 7.6699219 C 14.868231 7.6701219 14.468119 8.8994219 13.730469 9.1074219 C 13.430969 10.289158 14.482708 9.6806285 15.023438 9.1425781 L 15.023438 12.552734 C 14.857938 13.172144 15.658497 12.825072 16.023438 12.914062 L 16.023438 8.609375 C 15.954383 8.2941912 16.197132 7.6675756 15.837891 7.6425781 z M 15.837891 16.759766 C 15.786571 16.756166 15.723088 16.765363 15.644531 16.789062 C 14.868231 16.789262 14.468119 18.016609 13.730469 18.224609 C 13.430969 19.406349 14.482708 18.79781 15.023438 18.259766 L 15.023438 21.671875 C 14.857938 22.291285 15.658497 21.94226 16.023438 22.03125 L 16.023438 17.726562 C 15.954387 17.41138 16.197132 16.784763 15.837891 16.759766 z M 19.214844 16.789062 C 17.800774 16.733062 17.488011 18.341912 17.519531 19.445312 C 17.444031 20.559514 17.822744 22.161304 19.214844 22.121094 C 20.597964 22.173594 20.969596 20.558431 20.910156 19.457031 C 20.971056 18.354331 20.598044 16.740003 19.214844 16.789062 z M 19.214844 17.619141 C 19.743414 17.629741 19.804224 18.290911 19.839844 18.681641 C 19.920244 19.445041 20.028972 21.955859 18.763672 21.005859 C 18.576402 19.974359 18.166044 18.21534 19.214844 17.619141 z M 15.837891 25.878906 C 15.786571 25.875306 15.723088 25.88261 15.644531 25.90625 C 14.868231 25.90645 14.468119 27.133797 13.730469 27.341797 C 13.430969 28.523537 14.482708 27.916954 15.023438 27.378906 L 15.023438 30.789062 C 14.857938 31.408473 15.658497 31.061401 16.023438 31.150391 L 16.023438 26.845703 C 15.954387 26.530519 16.197132 25.903904 15.837891 25.878906 z M 23.958984 25.878906 C 23.907664 25.875306 23.844181 25.88261 23.765625 25.90625 C 22.989324 25.90645 22.589213 27.133797 21.851562 27.341797 C 21.552063 28.523537 22.603801 27.916954 23.144531 27.378906 L 23.144531 30.789062 C 22.979031 31.408473 23.779591 31.061401 24.144531 31.150391 L 24.144531 26.845703 C 24.075481 26.530519 24.318226 25.903904 23.958984 25.878906 z M 19.214844 25.90625 C 17.800774 25.85025 17.488011 27.461053 17.519531 28.564453 C 17.444031 29.678653 17.822744 31.278491 19.214844 31.238281 C 20.597964 31.290781 20.969596 29.675619 20.910156 28.574219 C 20.971056 27.471519 20.598044 25.85719 19.214844 25.90625 z M 19.214844 26.736328 C 19.743414 26.746928 19.804224 27.410051 19.839844 27.800781 C 19.920244 28.564181 20.028972 31.075 18.763672 30.125 C 18.576402 29.0935 18.166044 27.332528 19.214844 26.736328 z M 15.837891 34.996094 C 15.786571 34.992494 15.723088 35.001691 15.644531 35.025391 C 14.868231 35.025591 14.468109 36.252938 13.730469 36.460938 C 13.430969 37.642677 14.482708 37.034136 15.023438 36.496094 L 15.023438 39.908203 C 14.857938 40.527613 15.658497 40.178588 16.023438 40.267578 L 16.023438 35.962891 C 15.954387 35.647707 16.197132 35.021091 15.837891 34.996094 z M 23.958984 34.996094 C 23.907664 34.992494 23.844181 35.001691 23.765625 35.025391 C 22.989324 35.025591 22.589203 36.252938 21.851562 36.460938 C 21.552063 37.642677 22.603801 37.034136 23.144531 36.496094 L 23.144531 39.908203 C 22.979031 40.527613 23.779591 40.178588 24.144531 40.267578 L 24.144531 35.962891 C 24.075481 35.647707 24.318226 35.021091 23.958984 34.996094 z M 19.214844 35.025391 C 17.800774 34.969391 17.488011 36.578241 17.519531 37.681641 C 17.444031 38.795841 17.822744 40.397632 19.214844 40.357422 C 20.597964 40.409922 20.969596 38.794759 20.910156 37.693359 C 20.971056 36.590659 20.598044 34.976331 19.214844 35.025391 z M 27.335938 35.025391 C 25.921868 34.969391 25.609115 36.578241 25.640625 37.681641 C 25.565125 38.795841 25.943838 40.397632 27.335938 40.357422 C 28.719057 40.409922 29.09069 38.794759 29.03125 37.693359 C 29.09215 36.590659 28.719138 34.976331 27.335938 35.025391 z M 19.214844 35.855469 C 19.743414 35.866069 19.804224 36.527239 19.839844 36.917969 C 19.920244 37.681369 20.028972 40.192188 18.763672 39.242188 C 18.576402 38.210687 18.166044 36.451669 19.214844 35.855469 z M 27.335938 35.855469 C 27.864507 35.866069 27.925317 36.527239 27.960938 36.917969 C 28.041338 37.681369 28.150066 40.192188 26.884766 39.242188 C 26.697506 38.210687 26.287138 36.451669 27.335938 35.855469 z "
     id="path14075" />
</svg>

<svg xmlns="http://www.w3.org/2000/svg" width="48" height="48"><defs><linearGradient id="a"><stop offset="0" stop-color="#dc85e9"/><stop offset="1" stop-color="#f2cbf8"/></linearGradient><linearGradient id="b"><stop offset="0" stop-color="#dc85e9"/><stop offset="1" stop-color="#f2cbf8"/></linearGradient><linearGradient id="c"><stop offset="0" stop-color="#fff" stop-opacity=".588"/><stop offset="1" stop-color="#fff" stop-opacity=".863"/></linearGradient><linearGradient id="d"><stop offset="0" stop-color="#b3b3b3"/><stop offset="1" stop-color="#e6e6e6"/></linearGradient><linearGradient id="e"><stop offset="0" stop-color="#e694bb"/><stop offset=".262" stop-color="#d3819a"/><stop offset=".705" stop-color="#b25a64"/><stop offset="1" stop-color="#98313d"/></linearGradient></defs><path style="line-height:normal;text-indent:0;text-align:start;text-decoration-line:none;text-transform:none;marker:none" d="M29.705-.084c-2.047.008-4.121.088-4.517.098H7a2.938 2.938 0 0 0-.563 0C5.063.276 3.975 1.612 4 3.012V45c0 1.57 1.43 3 3 3h34c1.57 0 3-1.43 3-3V18.818c.018-.792.215-9.927-.336-10.496L34.054.248c-.284-.275-2.302-.34-4.349-.332zm1.49 3.094l.133 7.504c.012.681.638 1.29 1.317 1.279l7.771-.137c.133.018.268.017.4-.006l.082 3.03L41 18.77v26.227H7V3.021h18.672l5.523-.011zM15.838 7.643a.546.546 0 0 0-.193.027c-.777 0-1.177 1.23-1.915 1.437-.299 1.182.753.574 1.293.036v3.41c-.165.62.635.272 1 .361V8.61c-.069-.315.174-.941-.185-.966zm0 9.117a.553.553 0 0 0-.193.03c-.777 0-1.177 1.227-1.915 1.435-.299 1.181.753.573 1.293.035v3.412c-.165.62.635.27 1 .36v-4.305c-.069-.316.174-.942-.185-.967zm3.377.03c-1.414-.057-1.727 1.552-1.695 2.655-.076 1.115.303 2.716 1.695 2.676 1.383.053 1.755-1.563 1.695-2.664.061-1.103-.312-2.717-1.695-2.668zm0 .83c.528.01.59.67.625 1.062.08.763.189 3.274-1.076 2.324-.188-1.032-.598-2.79.45-3.387zm-3.377 8.259a.546.546 0 0 0-.193.027c-.777 0-1.177 1.228-1.915 1.436-.299 1.182.753.575 1.293.037v3.41c-.165.62.635.272 1 .361v-4.304c-.069-.315.174-.942-.185-.967zm8.121 0a.546.546 0 0 0-.193.027c-.777 0-1.177 1.228-1.914 1.436-.3 1.182.752.575 1.293.037v3.41c-.166.62.635.272 1 .361v-4.304c-.07-.315.173-.942-.186-.967zm-4.744.027c-1.414-.056-1.727 1.555-1.695 2.658-.076 1.115.303 2.714 1.695 2.674 1.383.053 1.755-1.562 1.695-2.664.061-1.102-.312-2.717-1.695-2.668zm0 .83c.528.01.59.674.625 1.065.08.763.189 3.274-1.076 2.324-.188-1.032-.598-2.792.45-3.389zm-3.377 8.26a.553.553 0 0 0-.193.03c-.777 0-1.177 1.227-1.915 1.435-.299 1.182.753.573 1.293.035v3.412c-.165.62.635.27 1 .36v-4.305c-.069-.315.174-.942-.185-.967zm8.121 0a.553.553 0 0 0-.193.03c-.777 0-1.177 1.227-1.914 1.435-.3 1.182.752.573 1.293.035v3.412c-.166.62.635.27 1 .36v-4.305c-.07-.315.173-.942-.186-.967zm-4.744.03c-1.414-.057-1.727 1.552-1.695 2.656-.076 1.114.303 2.716 1.695 2.675 1.383.053 1.755-1.562 1.695-2.664.061-1.102-.312-2.717-1.695-2.668zm8.12 0c-1.413-.057-1.726 1.552-1.694 2.656-.076 1.114.303 2.716 1.695 2.675 1.383.053 1.755-1.562 1.695-2.664.061-1.102-.312-2.717-1.695-2.668zm-8.12.83c.528.01.59.671.625 1.062.08.763.189 3.274-1.076 2.324-.188-1.031-.598-2.79.45-3.387zm8.12 0c.53.01.59.671.626 1.062.08.763.19 3.274-1.076 2.324-.187-1.031-.598-2.79.45-3.387z" color="#000" font-weight="400" font-family="Andale Mono" overflow="visible" fill="#e6e6e6"/></svg>
